X:1
T:Do Watcha Wanna
M:4/4
L:1/8
Q:1/8=190
C:Rebirth Brass Band (1996)
R:Rebirth
F:https://www.youtube.com/watch?v=X_AOwrXev60
K:Ebmaj
P:A
z4 zB/2B/2 c/2ec/2|:e4 z B/2B/2 c/2ec/2|
e4 z B/2B/2 c/2ec/2|e4 z B/2B/2 c/2ec/2|e2 z2 e4 |
z8 | z8 | z8 | z8 | z8 | z8 | z8 | z8 :|
P:B
|:e/2e/2 z _d/2d/2 z c/2c/2 z B/2 z/2 G-|
GBBc _G/2F/2E z =G-|GBBc _d z cB | z8 :|
